www/assets/icons/phonelink_lock.svg

<svg xmlns="http://www.w3.org/2000/svg" width="24" height="24" viewBox="0 0 24 24" fill='currentColor'><path d="M18.5 1h-10c-1.1 0-2 .9-2 2v3h2V4h10v16h-10v-2h-2v3c0 1.1.9 2 2 2h10c1.1 0 2-.9 2-2V3c0-1.1-.9-2-2-2m-8.2 10V9.5C10.3 8.1 8.9 7 7.5 7S4.7 8.1 4.7 9.5V11c-.6 0-1.2.6-1.2 1.2v3.5c0 .7.6 1.3 1.2 1.3h5.5c.7 0 1.3-.6 1.3-1.2v-3.5c0-.7-.6-1.3-1.2-1.3M9 11H6V9.5c0-.8.7-1.3 1.5-1.3S9 8.7 9 9.5z"/></svg>

<svg width="24" height="24" viewBox="0 0 24 24" xmlns="http://www.w3.org/2000/svg" fill='currentColor'><path d="M18.5 1H8.5C7.4 1 6.5 1.9 6.5 3V6H8.5V4H18.5V20H8.5V18H6.5V21C6.5 22.1 7.4 23 8.5 23H18.5C19.6 23 20.5 22.1 20.5 21V3C20.5 1.9 19.6 1 18.5 1ZM10.3 11V9.5C10.3 8.1 8.9 7 7.5 7C6.1 7 4.7 8.1 4.7 9.5V11C4.1 11 3.5 11.6 3.5 12.2V15.7C3.5 16.4 4.1 17 4.7 17H10.2C10.9 17 11.5 16.4 11.5 15.8V12.3C11.5 11.6 10.9 11 10.3 11ZM9 11H6V9.5C6 8.7 6.7 8.2 7.5 8.2C8.3 8.2 9 8.7 9 9.5V11Z"/></svg>
